src/lib/packages/icons/src/assets/line/home-trend-up.svg

<svg width="24" height="24" viewBox="0 0 24 24" fill="none" xmlns="http://www.w3.org/2000/svg">
<path d="M20.208 8.14101L14.088 3.01003C12.879 1.99503 11.121 1.99503 9.91199 3.01003L3.79199 8.14101C2.83599 8.93401 2.25 9.52804 2.25 11.65V18C2.25 20.418 3.582 21.75 6 21.75H18C20.418 21.75 21.75 20.418 21.75 18V11.65C21.75 9.52804 21.164 8.93401 20.208 8.14101ZM20.25 18C20.25 19.577 19.577 20.25 18 20.25H6C4.423 20.25 3.75 19.577 3.75 18V11.65C3.75 10.124 4.00202 9.91506 4.74902 9.29506L10.875 4.15908C11.201 3.88608 11.601 3.74904 12 3.74904C12.399 3.74904 12.799 3.88608 13.125 4.15908L19.251 9.29506C19.998 9.91506 20.25 10.124 20.25 11.65V18ZM16.692 12.027C16.73 12.119 16.75 12.216 16.75 12.314V14.814C16.75 15.228 16.414 15.564 16 15.564C15.586 15.564 15.25 15.228 15.25 14.814V14.124L13.691 15.682C13.148 16.226 12.198 16.226 11.653 15.682L10.474 14.502L8.53003 16.5291C8.38403 16.6751 8.192 16.749 8 16.749C7.808 16.749 7.61597 16.6761 7.46997 16.5291C7.17697 16.2361 7.17697 15.761 7.46997 15.468L9.49695 13.4411C10.0409 12.8971 10.992 12.8971 11.536 13.4411L12.714 14.62L14.2271 13.062H13.5C13.086 13.062 12.75 12.726 12.75 12.312C12.75 11.898 13.086 11.562 13.5 11.562H16C16.098 11.562 16.195 11.582 16.287 11.62C16.47 11.698 16.616 11.844 16.692 12.027Z" fill="currentColor"/>
</svg>

<svg xmlns="http://www.w3.org/2000/svg" width="24" height="24" fill="none"><path fill="currentColor" d="m20.208 8.141-6.12-5.131a3.244 3.244 0 0 0-4.176 0l-6.12 5.131c-.956.793-1.542 1.387-1.542 3.509V18c0 2.418 1.332 3.75 3.75 3.75h12c2.418 0 3.75-1.332 3.75-3.75v-6.35c0-2.122-.586-2.716-1.542-3.509ZM20.25 18c0 1.577-.673 2.25-2.25 2.25H6c-1.577 0-2.25-.673-2.25-2.25v-6.35c0-1.526.252-1.735.999-2.355l6.126-5.136a1.75 1.75 0 0 1 2.25 0l6.126 5.136c.747.62.999.829.999 2.355V18Zm-3.558-5.973a.75.75 0 0 1 .058.287v2.5a.75.75 0 0 1-1.5 0v-.69l-1.559 1.558c-.543.544-1.493.544-2.038 0l-1.179-1.18-1.944 2.027a.748.748 0 0 1-1.06 0 .75.75 0 0 1 0-1.061l2.027-2.027c.544-.544 1.495-.544 2.039 0l1.178 1.179 1.513-1.558H13.5a.75.75 0 0 1 0-1.5H16a.75.75 0 0 1 .692.465Z"/></svg>
